X:1
T:Title
%%score { ( 1 4 ) | ( 2 3 ) }
L:1/8
M:4/4
K:F
V:1 treble nm="Grand Piano"
V:4 treble 
V:2 bass 
V:3 bass 
V:1
 z4[Q:1/4=110] [Ec]3 B | A2 A2 [EG]2 [EA]2 | F2 F2 F4 | [EG]2 [EG]2 [EG]4 | %4
[M:3/4] [FA]2 [Ac]2 [Ac]2 |[M:1/4] [Ac]>B |[M:4/4] A2 A2 [EG]2 [EA]2 | F2 F2 F2 [Fd]2 | %8
 [Fc]2 [FA]2 [EG]3 [EA] |[M:3/4] F6 |[M:1/4] F2 |[M:4/4] z4 z2 .d2 | [Af]2 [Ac]2 [Ac]2 [FA]2 | %13
 [Ac]2 [GB]2 [GB]2 [EG]2 |[M:3/4] [Bd]2 [Ac]2 [Ac]2 |[M:1/4] F2 |[M:4/4] z4 z2 .d2 | %17
 [Af]2 [Ac]2 [Ac]2 [FA]2 | [EG]4 [F=B]4 |[M:2/4] [Ec]4 | [Ec]3 B |[M:4/4] A2 A2 [EG]2 [EA]2 | %22
 F2 F2 F4 | [EG]2 [EG]2 [EG]4 |[M:3/4] [FA]2 [Ac]2 [Ac]2 |[M:1/4] [Ac]>B | %26
[M:4/4] A2 A2 [EG]2 [EA]2 | F2 F2 F2 [Fd]2 | [Fc]2 [CFA]2 [B,EG]3 [CEA] |[M:7/4] [A,F]6 z2 z2 z4 |] %30
V:2
 z4 z2 z G | [F,CF]2 [F,CF]2 [C,B,]2 [C,C]2 | [F,A,]2 [F,A,C]2 [F,A,C]4 | [C,C]2 [C,C]2 [C,C]4 | %4
[M:3/4] [F,C]2 [F,C]2 [F,C]2 |[M:1/4] z z/[K:treble] G/ | %6
[M:4/4] [F,CF]2[K:bass] [F,CF]2 [C,B,]2 [C,C]2 | [F,A,]2 [F,A,C]2 [F,A,C]2 [B,,B,]2 | %8
 [C,A,]2 [C,C]2 [C,B,]3 [C,C] |[M:3/4] [F,A,]6 |[M:1/4] [F,A,]2 | %11
[M:4/4][K:treble] [B,DF]2 [B,DF]2 [B,DF]2[K:bass] [G,C]2 | [F,C]2 [F,F]2 [F,F]2 [F,C]2 | %13
 [C,C]2 [C,C]2 [C,C]2 [C,C]2 |[M:3/4] [F,C]2 [F,C]2 [F,C]2 |[M:1/4] [F,A,]2 | %16
[M:4/4][K:treble] [B,DF]2 [B,DF]2 [B,DF]2[K:bass] [G,C]2 | [F,C]2 [F,F]2 [F,F]2 [F,C]2 | %18
 [G,C]4 [G,,G,]4 |[M:2/4] [C,G,]4 | z2 z[K:treble] G | %21
[M:4/4] [F,CF]2[K:bass] [F,CF]2 [C,B,]2 [C,C]2 | [F,A,]2 [F,A,C]2 [F,A,C]4 | [C,C]2 [C,C]2 [C,C]4 | %24
[M:3/4] [F,C]2 [F,C]2 [F,C]2 |[M:1/4] z z/[K:treble] G/ | %26
[M:4/4] [F,CF]2[K:bass] [F,CF]2 [C,B,]2 [C,C]2 | [F,A,]2 [F,A,C]2 [F,A,C]2 [B,,B,]2 | %28
 [C,A,]2 C,2 C,3 C, |[M:7/4] F,6 z2 z2 z4 |] %30
V:3
 z4 [C,C]4 | x8 | x8 | x8 |[M:3/4] x6 |[M:1/4] [F,C]2[K:treble] |[M:4/4] x2[K:bass] x6 | x8 | x8 | %9
[M:3/4] x6 |[M:1/4] x2 |[M:4/4][K:treble] x6[K:bass] x2 | x8 | x8 |[M:3/4] x6 |[M:1/4] x2 | %16
[M:4/4][K:treble] x6[K:bass] x2 | x8 | x8 |[M:2/4] x4 | [C,C]4[K:treble] |[M:4/4] x2[K:bass] x6 | %22
 x8 | x8 |[M:3/4] x6 |[M:1/4] [F,C]2[K:treble] |[M:4/4] x2[K:bass] x6 | x8 | x8 |[M:7/4] x14 |] %30
V:4
 x8 | x8 | x8 | x8 |[M:3/4] x6 |[M:1/4] x2 |[M:4/4] x8 | x8 | x8 |[M:3/4] x6 |[M:1/4] x2 | %11
[M:4/4] B2 B2 BcB-[Be] | x8 | x8 |[M:3/4] x6 |[M:1/4] x2 |[M:4/4] B2 B2 BcB-[Be] | x8 | x8 | %19
[M:2/4] x4 | x4 |[M:4/4] x8 | x8 | x8 |[M:3/4] x6 |[M:1/4] x2 |[M:4/4] x8 | x8 | x8 |[M:7/4] x14 |] %30

